!! 00046] TT[KA
!! NN
!!!OTL: Dou ge
!!!ARE: Asia, China,Guangdong, Haifeng
!! Ethnic Group: Han
!! II, 413
!!!SCT: C0251
!!!YEM: Copyright 1995, estate of Helmut Schaffrath.
**kern
*ICvox
*Ivox
!! Mixed meters:  3/4; 2/4
*M3/4
*k[f#]
*G:
{8dd
16b
16dd
16b
16a
8g
=1
8g
8a
4b}
=2
{8b
16a
16b
16a
16g
8e
=3
8g
16a
16g
4a}
=4
{8b
16a
16b
8dd
8b
=5
8d
16d
16e
8f#
16f#
16e
4d}
=6
*M2/4
{8b
16a
16b
8a
8g
=7
*M3/4
16g
16a
8b
16f#
16g
16f#
16e
16d
16B
16d
16e
=8
2g}
==
!!!AGN: Yu ge, Fischerlied; Kinderlied zum Fischen. Dui chang? Frage-Antwort Lied
!!!ONB: ESAC (Essen Associative Code) Database: CHINA_075
!!!AMT: irregular
!!!AIN: vox
!!!EED: Helmut Schaffrath
!!!EEV: 1.0
*-
